X: 164
T: No_96_Great_White_Birds_Over_the_Ocean.krn
N: Derived from No_96_Great_White_Birds_Over_the_Ocean.krn
%%abc-version 2.0
%%abcx-abcm2ps-target-version 5.9.1 (29 Sep 2008)
%%abc-creator hum2abc beta
%%abcx-conversion-date 2019/03/15 08:37:56
%%humdrum-veritas 1551589613
%%humdrum-veritas-data 2798895764
%%linebreak <none>
%%barnumbers 0
L: 1/8
M: 2/4
K: Eb clef=bass
[K:clef=bass][M:2/4]B,3/B,/ F3/F/ | 
F3/F/ E z/ G/ | 
G3/F/ E3/E/ | 
E3/(E/ C3/)B,/ ||  
[M:3/4](!accent!E7/B,/) B, z/ E/ ||  
[M:2/4]E3/(E/ E3/)C/ | 
!accent!E3/B,/ (B,3/A,/) ||  
[M:3/4]B,3/B,/ (3B,B,A, B,3/A,/ | 
(!accent!B,7/A,/) A,/A,/ z ||  
[M:2/4]C3/C/ (3CB,B, ||  
[M:3/4]B,3/B,/ (3B,B,B, B,3/A,/ ||  
[M:2/4]B,3/B,/ A, z | 
B,/B,3/ B,3/B,/ | 
B,B, A, z/ B,/ | 
B,/B,3/B,2 | 
B,4 |]  



